icons/mobile/24/svg/shield-24.svg

<svg width="24" height="24" viewBox="0 0 24 24" fill="none" xmlns="http://www.w3.org/2000/svg">
<path fill-rule="evenodd" clip-rule="evenodd" d="M10.0434 3.59283C11.2228 2.80546 12.7503 2.79704 13.9311 3.60748C14.431 3.9507 14.9744 4.29823 15.561 4.63971L16.1625 4.97955L16.8061 5.31939C17.4427 5.64514 18.0597 5.92778 18.6479 6.17291C20.1429 6.79554 20.9688 8.38045 20.6762 9.95318L20.1088 12.9991C19.8678 14.3024 19.4235 15.6128 18.6684 16.7588L18.6674 16.7628C17.3669 18.7352 15.6213 20.4076 13.7221 21.5333C12.6495 22.1687 11.314 22.1477 10.2573 21.5196C8.36865 20.396 6.6325 18.7304 5.33831 16.7696C4.57896 15.6182 4.13584 14.3015 3.89397 12.9922L3.893 12.9913L3.32366 9.89459C3.03829 8.33972 3.84076 6.73594 5.34026 6.11138C5.97939 5.84508 6.64902 5.53652 7.33831 5.1817C8.3427 4.66593 9.24603 4.12472 10.0434 3.59283ZM12.9408 5.04986C12.3618 4.65253 11.6115 4.65059 11.0151 5.04888C10.3788 5.47333 9.67916 5.90288 8.91936 6.32232L8.13909 6.73834C7.58962 7.02118 7.0516 7.27637 6.52972 7.50592L6.01311 7.72662C5.31322 8.01809 4.90026 8.79056 5.04436 9.57721L5.61468 12.6739L5.70159 13.1016C5.92387 14.0897 6.2775 15.0145 6.79925 15.8057L7.01995 16.1309C8.14807 17.7397 9.60365 19.0947 11.1518 20.0157C11.6728 20.3254 12.3223 20.3286 12.8295 20.0284C14.4898 19.0444 16.0432 17.5607 17.2045 15.7999L17.2065 15.7969C17.8007 14.8954 18.1773 13.8216 18.3881 12.6817L18.3891 12.6807L18.9555 9.63287L18.976 9.48638C19.0478 8.75785 18.6447 8.06813 17.975 7.78912L17.9741 7.78814C17.1364 7.43904 16.2452 7.01929 15.3227 6.51471C14.4459 6.03546 13.6518 5.53796 12.9408 5.04986Z" fill="black"/>
</svg>

<!-- This Source Code Form is subject to the terms of the Mozilla Public
   - License, v. 2.0. If a copy of the MPL was not distributed with this
   - file, You can obtain one at http://mozilla.org/MPL/2.0/. -->
<svg xmlns="http://www.w3.org/2000/svg" width="24" height="24" fill="none" viewBox="0 0 24 24">
    <path fill="#000" fill-rule="evenodd" d="M10.043 3.593a3.45 3.45 0 0 1 3.888.014c.5.344 1.043.691 1.63 1.033l.602.34.643.34a26 26 0 0 0 1.842.853 3.41 3.41 0 0 1 2.028 3.78L20.11 13c-.241 1.303-.686 2.614-1.44 3.76l-.002.004c-1.3 1.972-3.046 3.645-4.945 4.77a3.4 3.4 0 0 1-3.465-.013c-1.888-1.124-3.624-2.79-4.919-4.75-.759-1.152-1.202-2.468-1.444-3.778h-.001l-.57-3.097c-.285-1.555.518-3.16 2.017-3.784.64-.266 1.309-.574 1.998-.93a28 28 0 0 0 2.705-1.588m2.898 1.457a1.7 1.7 0 0 0-1.926-.001c-.636.424-1.336.854-2.096 1.273l-.78.416q-.825.424-1.61.768l-.516.22c-.7.292-1.113 1.065-.969 1.851l.57 3.097.088.428c.222.988.575 1.912 1.097 2.704l.22.325c1.13 1.609 2.585 2.964 4.133 3.885.52.31 1.17.313 1.678.012 1.66-.984 3.213-2.467 4.374-4.228l.002-.003c.595-.902.971-1.975 1.182-3.115l.001-.001.567-3.048.02-.147a1.655 1.655 0 0 0-1.001-1.697 28 28 0 0 1-5.034-2.74" clip-rule="evenodd" />
</svg>
